images/coupon-white.svg

<svg width="323" height="209" viewBox="0 0 323 209" fill="none" xmlns="http://www.w3.org/2000/svg">
<path d="M306.18 96.4799L304.11 97.4799C300.11 101.48 300.11 106.41 300.58 111.48C303.08 118.87 309.36 120.48 315.93 120.86C319.39 121.08 320.22 122.44 319.93 125.41C319.87 126.07 319.93 125.24 319.93 125.9C319.79 129.2 321 132.9 319.43 135.67C317.86 138.44 313.73 136.94 310.86 137.99C307.248 139.217 304.063 141.452 301.68 144.43C299.97 149.01 299.62 153.43 302.96 157.56L302.91 157.5C305.63 161.5 309.64 163.24 314.17 164.05C320.33 165.15 320.32 165.33 319.98 172.79C319.73 178.32 315.7 176.41 312.98 176.43C304.22 176.51 295.82 177.78 288.09 182.19C287.24 182.68 286.29 183.05 285.85 184.05C280.79 186.56 278.48 191.36 275.92 195.95C275.44 198.21 274.31 200.39 274.45 202.7C274.72 207.32 272.33 208.11 268.3 208.08C247.98 207.93 227.65 208.01 207.3 208.01H53.93C48.03 208.01 47.93 208.01 47.52 202.01C47.3 199 46 196.32 45 193.52L45.05 193.61C42.2102 188.562 38.043 184.388 33 181.54L33.09 181.59C27.5525 178.866 21.5439 177.23 15.39 176.77C12.28 176.77 9.2 175.98 6.07 176.45C3.42 176.85 1.97 175.81 2.07 172.96C2.07 171.31 2.07 169.66 2.07 168.02C2.07 165.81 2.98 164.75 5.25 164.54C8.69 164.22 12.08 163.59 15.04 161.61C16.741 160.569 18.1948 159.171 19.3001 157.511C20.4054 155.851 21.1357 153.971 21.44 152C22.32 145.82 18.3 140.32 11.66 138.3C10.4 137.92 9.09 137.7 7.82 137.39C2 135.92 2 136 2 130V129.5C2 121.75 2 121.77 9.53 120.58C13.76 119.92 17.53 118.43 20.02 114.58V114.64C22.5 108.57 22.7 102.77 18.02 97.5499C14.564 94.9208 10.3424 93.4949 6 93.4899C3.16 93.4899 2.07 92.2399 2 89.2399C1.57 77.9999 1.46 77.9999 13.84 76.7599L16.93 74.9999C22.26 69.3799 23.43 61.9999 19.43 57.0899C16.43 53.3899 12.1 52.3799 7.49 51.9399C0 51.2299 0 51.0999 0 43.4599C0 35.0499 0 34.9199 8 33.6999C13.5599 32.9255 19.0188 31.5473 24.28 29.5899C31.47 26.2999 37.76 21.9399 42 14.9999C44 11.0999 46.23 7.25995 47.43 2.99995C47.93 1.22995 48.63 -5.27911e-05 50.68 0.0599472C121.953 0.0599472 193.22 0.0266139 264.48 -0.0400528C270.07 -0.0400528 274.98 -0.150053 276.48 6.63995C279.3 16.9799 285.72 24.1899 295.48 28.5299C303.29 31.7999 311.33 34.0899 319.88 34.0199C322.22 34.0199 322.6 35.1599 322.56 37.0999C322.48 40.7399 322.43 44.3899 322.56 48.0299C322.66 50.6399 321.56 51.4699 319.04 51.5899C313.76 51.8299 308.46 52.1899 303.99 55.5899L304.05 55.5299C300.24 59.2699 299.76 63.6699 301.19 68.5999C301.57 69.9099 302.74 71.1599 302 72.7099C302.54 73.3299 303.07 73.9599 303.6 74.5799C307.96 76.0599 312.31 77.4899 316.99 77.5799C320.99 77.6999 320.4 81.0299 319.88 83.0999C319.04 86.4299 323.08 91.3999 316.99 93.0099C313.25 93.9999 309.25 93.7599 306.18 96.4799Z" fill="#FEFEFE"/>
</svg>

<svg xmlns="http://www.w3.org/2000/svg" width="323" height="209" fill="none"><path fill="#FEFEFE" d="m306.18 96.48-2.07 1c-4 4-4 8.93-3.53 14 2.5 7.39 8.78 9 15.35 9.38 3.46.22 4.29 1.58 4 4.55-.06.66 0-.17 0 .49-.14 3.3 1.07 7-.5 9.77-1.57 2.77-5.7 1.27-8.57 2.32a19.994 19.994 0 0 0-9.18 6.44c-1.71 4.58-2.06 9 1.28 13.13l-.05-.06c2.72 4 6.73 5.74 11.26 6.55 6.16 1.1 6.15 1.28 5.81 8.74-.25 5.53-4.28 3.62-7 3.64-8.76.08-17.16 1.35-24.89 5.76-.85.49-1.8.86-2.24 1.86-5.06 2.51-7.37 7.31-9.93 11.9-.48 2.26-1.61 4.44-1.47 6.75.27 4.62-2.12 5.41-6.15 5.38-20.32-.15-40.65-.07-61-.07H53.93c-5.9 0-6 0-6.41-6-.22-3.01-1.52-5.69-2.52-8.49l.05.09A31.726 31.726 0 0 0 33 181.54l.09.05a48.247 48.247 0 0 0-17.7-4.82c-3.11 0-6.19-.79-9.32-.32-2.65.4-4.1-.64-4-3.49v-4.94c0-2.21.91-3.27 3.18-3.48 3.44-.32 6.83-.95 9.79-2.93a13.722 13.722 0 0 0 6.4-9.61c.88-6.18-3.14-11.68-9.78-13.7-1.26-.38-2.57-.6-3.84-.91C2 135.92 2 136 2 130v-.5c0-7.75 0-7.73 7.53-8.92 4.23-.66 8-2.15 10.49-6v.06c2.48-6.07 2.68-11.87-2-17.09A19.89 19.89 0 0 0 6 93.49c-2.84 0-3.93-1.25-4-4.25C1.57 78 1.46 78 13.84 76.76L16.93 75c5.33-5.62 6.5-13 2.5-17.91-3-3.7-7.33-4.71-11.94-5.15C0 51.23 0 51.1 0 43.46c0-8.41 0-8.54 8-9.76a77.25 77.25 0 0 0 16.28-4.11C31.47 26.3 37.76 21.94 42 15c2-3.9 4.23-7.74 5.43-12 .5-1.77 1.2-3 3.25-2.94 71.273 0 142.54-.033 213.8-.1 5.59 0 10.5-.11 12 6.68 2.82 10.34 9.24 17.55 19 21.89 7.81 3.27 15.85 5.56 24.4 5.49 2.34 0 2.72 1.14 2.68 3.08-.08 3.64-.13 7.29 0 10.93.1 2.61-1 3.44-3.52 3.56-5.28.24-10.58.6-15.05 4l.06-.06c-3.81 3.74-4.29 8.14-2.86 13.07.38 1.31 1.55 2.56.81 4.11.54.62 1.07 1.25 1.6 1.87 4.36 1.48 8.71 2.91 13.39 3 4 .12 3.41 3.45 2.89 5.52-.84 3.33 3.2 8.3-2.89 9.91-3.74.99-7.74.75-10.81 3.47Z"/></svg>
